X:602
T:Her Blushing Cheek.
R:air
T:a gruai.d a.dan.ta.ct.
Z:Tempo: moderate
M:C
Q:60
K:A
E|ABAF AEEF|ABBAF FE3 E|FBBc dfed|cABA A3||
E|AAce AA c/d/e|AB c/B/A/G/ F3E|FBBc dfed|cA c/B/A/G/ A2 z||
